images_sukapura_svg/cmd/lc_insertrows.svg

<svg viewBox="0 0 24 24" xmlns="http://www.w3.org/2000/svg" xmlns:xlink="http://www.w3.org/1999/xlink"><linearGradient id="a" gradientUnits="userSpaceOnUse" x1="5" x2="5" y1="13" y2="8"><stop offset="0" stop-color="#007018"/><stop offset="1" stop-color="#32d74b"/></linearGradient><path d="m3 3v5h12v-5zm0 10v8h9 3v-2-4-2z" fill="#fff"/><path d="m8 4v3h-5v1h12v-1h-6v-3zm-5 9v1h5v3h-5v1h5v3h1v-3h1.283203 4.716797v-1h-5-1v-3h1 5v-1h-6-1z" fill="#bababa"/><path d="m2 3v5h1v-1-3h5 1 6v3 1h1v-5zm0 10v8c0 .554.446 1 1 1h12c.554 0 1-.446 1-1v-2-1-1-2-2h-1v1 1 2 1 1 1.5.5h-12v-.5-2.5-1-3-1z" fill="#69696e"/><path d="m9 9h12v3h-12z" fill="#32d74b"/><path d="m8 8v5h14v-5zm1 1h5v3h-5zm6 0h6v3h-6z" fill="#007018"/><path d="m4.453125 7c-.3802333.0117932-.7439778.1692059-1.0136719.4375a1.0041282 1.0041282 0 0 0 0 .00195l-.4394531.4394562v.1210938h2.90625c-.216901-.5913778-.7948956-1.0207535-1.453125-1zm-1.453125 6v.123047l.4375.4375c.4425411.444058 1.1252552.539765 1.6367188.328125.36767-.152139.6820677-.48335.8320312-.888672z" fill="#fff" fill-opacity=".784314"/><path d="m4.484375 8.0039062c-.1262712.00376-.2463783.055437-.3359375.1445313l-2 2.0000005c-.1940774.194198-.1940774.508926 0 .703124l2 2c.3132265.3143.8500495.092167.8496094-.351562v-1.5h2.0019531v-1h-2.0019531v-1.5c-.0005506-.2806903-.2331325-.5053132-.5136719-.4960938z" fill="url(#a)"/></svg>

<?xml version="1.0" encoding="UTF-8" standalone="no"?>
<svg
   xmlns:dc="http://purl.org/dc/elements/1.1/"
   xmlns:cc="http://creativecommons.org/ns#"
   xmlns:rdf="http://www.w3.org/1999/02/22-rdf-syntax-ns#"
   xmlns:svg="http://www.w3.org/2000/svg"
   xmlns="http://www.w3.org/2000/svg"
   xmlns:xlink="http://www.w3.org/1999/xlink"
   xmlns:sodipodi="http://sodipodi.sourceforge.net/DTD/sodipodi-0.dtd"
   xmlns:inkscape="http://www.inkscape.org/namespaces/inkscape"
   viewBox="0 0 24 24"
   version="1.1"
   id="svg12"
   sodipodi:docname="lc_insertrows.svg"
   inkscape:export-filename="/home/rizmut/Documents/Rizmut/Github/libreoffice-style-sukapura/images_sukapura/cmd/lc_insertrows.png"
   inkscape:export-xdpi="96"
   inkscape:export-ydpi="96"
   inkscape:version="0.92.3 (2405546, 2018-03-11)">
  <metadata
     id="metadata18">
    <rdf:RDF>
      <cc:Work
         rdf:about="">
        <dc:format>image/svg+xml</dc:format>
        <dc:type
           rdf:resource="http://purl.org/dc/dcmitype/StillImage" />
        <dc:title></dc:title>
      </cc:Work>
    </rdf:RDF>
  </metadata>
  <defs
     id="defs16">
    <linearGradient
       inkscape:collect="always"
       id="linearGradient1719">
      <stop
         style="stop-color:#007018;stop-opacity:1;"
         offset="0"
         id="stop1715" />
      <stop
         style="stop-color:#32d74b;stop-opacity:1"
         offset="1"
         id="stop1717" />
    </linearGradient>
    <linearGradient
       inkscape:collect="always"
       xlink:href="#linearGradient1719"
       id="linearGradient1721"
       x1="5"
       y1="13"
       x2="5"
       y2="8"
       gradientUnits="userSpaceOnUse" />
  </defs>
  <sodipodi:namedview
     pagecolor="#ffffff"
     bordercolor="#666666"
     borderopacity="1"
     objecttolerance="10"
     gridtolerance="10"
     guidetolerance="10"
     inkscape:pageopacity="0"
     inkscape:pageshadow="2"
     inkscape:window-width="1366"
     inkscape:window-height="685"
     id="namedview14"
     showgrid="true"
     inkscape:zoom="16"
     inkscape:cx="15.372573"
     inkscape:cy="8.5851043"
     inkscape:window-x="0"
     inkscape:window-y="0"
     inkscape:window-maximized="1"
     inkscape:current-layer="svg12">
    <inkscape:grid
       type="xygrid"
       id="grid828"
       spacingx="0.5"
       spacingy="0.5"
       empspacing="2" />
  </sodipodi:namedview>
  <path
     style="fill:#ffffff;fill-opacity:1"
     d="M 3 3 L 3 8 L 15 8 L 15 3 L 3 3 z M 3 13 L 3 21 L 12 21 L 15 21 L 15 19 L 15 15 L 15 13 L 3 13 z "
     id="path2" />
  <path
     style="fill:#bababa;fill-opacity:1"
     d="M 8,4 V 7 H 3 V 8 H 15 V 7 H 9 V 4 Z m -5,9 v 1 h 5 v 3 H 3 v 1 h 5 v 3 H 9 V 18 H 10.283203 15 V 17 H 10 9 v -3 h 1 5 V 13 H 9 8 Z"
     id="path4"
     inkscape:connector-curvature="0"
     sodipodi:nodetypes="ccccccccccccccccccccccccccccccc" />
  <path
     style="fill:#69696e;fill-opacity:1"
     d="M 2,3 V 8 H 3 V 7 4 h 5 1 6 v 3 1 h 1 V 3 Z m 0,10 v 8 c 0,0.554 0.446,1 1,1 h 12 c 0.554,0 1,-0.446 1,-1 v -2 -1 -1 -2 -2 h -1 v 1 1 2 1 1 1.5 0.5 H 3 V 20.5 18 17 14 13 Z"
     id="path1653"
     inkscape:connector-curvature="0"
     sodipodi:nodetypes="ccccccccccccccsssscccccccccccccccccccc" />
  <g
     id="g1749">
    <rect
       y="9"
       x="9"
       height="3"
       width="12"
       id="rect1686"
       style="opacity:1;fill:#32d74b;fill-opacity:1;stroke:none;stroke-width:2;stroke-linecap:round;stroke-linejoin:round;stroke-miterlimit:4;stroke-dasharray:none;stroke-opacity:1" />
    <path
       style="fill:#007018;fill-opacity:1"
       d="m 8,8 v 5 H 22 V 8 Z m 1,1 h 5 v 3 H 9 Z m 6,0 h 6 v 3 h -6 z"
       id="path1648"
       inkscape:connector-curvature="0"
       sodipodi:nodetypes="ccccccccccccccc" />
    <g
       id="g1732">
      <path
         style="fill:#ffffff;fill-opacity:0.78431373;stroke:none;stroke-width:1px;stroke-linecap:butt;stroke-linejoin:miter;stroke-opacity:1"
         d="M 4.453125,7 C 4.0728917,7.0117932 3.7091472,7.1692059 3.4394531,7.4375 a 1.0041282,1.0041282 0 0 0 0,0.00195 L 3,7.8789062 V 8 H 5.90625 C 5.689349,7.4086222 5.1113544,6.9792465 4.453125,7 Z M 3,13 v 0.123047 l 0.4375,0.4375 c 0.4425411,0.444058 1.1252552,0.539765 1.6367188,0.328125 C 5.4418888,13.736533 5.7562865,13.405322 5.90625,13 Z"
         id="path1723"
         inkscape:connector-curvature="0" />
      <path
         style="fill:url(#linearGradient1721);fill-opacity:1;stroke:none;stroke-width:1px;stroke-linecap:butt;stroke-linejoin:miter;stroke-opacity:1"
         d="m 4.484375,8.0039062 c -0.1262712,0.00376 -0.2463783,0.055437 -0.3359375,0.1445313 l -2,2.0000005 c -0.1940774,0.194198 -0.1940774,0.508926 0,0.703124 l 2,2 C 4.461664,13.165862 4.998487,12.943729 4.9980469,12.5 V 11 H 7 V 10 H 4.9980469 V 8.5 C 4.9974963,8.2193097 4.7649144,7.9946868 4.484375,8.0039062 Z"
         id="path1707"
         inkscape:connector-curvature="0"
         sodipodi:nodetypes="cccccccccccc" />
    </g>
  </g>
</svg>
